X:1
T:The Farmer's Boy
M:4/4
L:1/8
K:D
 DD F| A/2 A3/2- A2- AF AA| F4- FD EF| G4- GE FG| A4- A| AA A| d4- dB BA|\
 G4- GF GB| A4- AF GE| D4- D||
